public/svg/graphql.svg

<svg width="140" height="168" viewBox="0 0 140 168" fill="none" xmlns="http://www.w3.org/2000/svg">
<mask id="mask0" mask-type="alpha" maskUnits="userSpaceOnUse" x="0" y="0" width="140" height="168">
<path d="M0 8.00001C0 3.58173 3.58172 0 8 0H140V167.95H8C3.58172 167.95 0 164.369 0 159.95V8.00001Z" fill="#C4C4C4"/>
</mask>
<g mask="url(#mask0)">
<path d="M-27 -2.0498H145V169.95H-27V-2.0498Z" fill="#E65678"/>
<path d="M107.658 96.9134C106.938 96.4964 106.163 96.2184 105.388 96.0516V72.9484C106.163 72.7538 106.938 72.5036 107.686 72.0588C111.812 69.64 113.224 64.3855 110.843 60.243C108.434 56.1006 103.2 54.6827 99.0737 57.0737C98.326 57.5185 97.7168 58.0467 97.163 58.6584L77.2246 47.0929C77.4461 46.3144 77.6123 45.5082 77.6123 44.6463C77.6123 39.8644 73.7631 36 69 36C64.2369 36 60.3877 39.8644 60.3877 44.6463C60.3877 45.5082 60.5539 46.3144 60.7754 47.0929L40.837 58.6305C40.2832 58.0467 39.6463 57.4907 38.9263 57.0737C34.8001 54.6549 29.5386 56.0728 27.1571 60.2152C24.7756 64.3577 26.1879 69.64 30.314 72.0309C31.0617 72.448 31.8094 72.726 32.6125 72.9206V96.0516C31.8371 96.2462 31.0617 96.4964 30.3417 96.9134C26.2156 99.3322 24.8032 104.587 27.1848 108.729C29.5663 112.872 34.8001 114.289 38.954 111.899C39.674 111.482 40.2832 110.925 40.837 110.342L60.7754 121.907C60.5539 122.686 60.3877 123.492 60.3877 124.354C60.3877 129.136 64.2369 133 69 133C73.7631 133 77.6123 129.136 77.6123 124.354C77.6123 123.408 77.4184 122.491 77.1415 121.657L96.9691 110.175C97.5784 110.842 98.243 111.454 99.0737 111.926C103.2 114.317 108.461 112.899 110.843 108.757C113.224 104.614 111.812 99.2766 107.658 96.9134ZM42.9693 102.363C42.7755 101.584 42.5263 100.806 42.1109 100.083C41.6955 99.36 41.1416 98.7205 40.5601 98.1645L66.5908 52.8756C67.3662 53.098 68.1415 53.2648 68.9723 53.2648H69C69.8308 53.2648 70.6062 53.098 71.3538 52.8756L97.4122 98.1645C96.8307 98.7205 96.3045 99.3322 95.8614 100.055C95.4461 100.778 95.1691 101.556 95.003 102.335H42.9693V102.363ZM95.1137 62.1892C94.5045 64.3577 94.7261 66.7764 95.9168 68.8616C97.1353 70.9745 99.1014 72.3646 101.289 72.9206V96.0238C101.178 96.0516 101.068 96.0794 100.957 96.1072L74.9261 50.8461C75.0092 50.7627 75.0923 50.7071 75.1754 50.6237L95.1137 62.1892ZM62.8246 50.6237C62.9077 50.7071 62.9631 50.7627 63.0462 50.8461L37.0155 96.1072C36.9047 96.0794 36.794 96.0516 36.6832 96.0238V72.9206C38.8709 72.3646 40.8647 70.9745 42.0832 68.8616C43.3016 66.7764 43.4955 64.3577 42.8863 62.1614L62.8246 50.6237ZM75.3138 118.515C73.7354 116.792 71.4923 115.68 68.9723 115.68C66.5354 115.68 64.3477 116.708 62.7969 118.321L42.8863 106.811C42.9139 106.7 42.9416 106.588 42.9693 106.477H94.9753C95.0307 106.672 95.0861 106.839 95.1414 107.033L75.3138 118.515Z" fill="white"/>
</g>
</svg>

<svg xmlns="http://www.w3.org/2000/svg" width="140" height="168" fill="none"  xmlns:v="https://vecta.io/nano"><mask id="A" mask-type="alpha" maskUnits="userSpaceOnUse" x="0" y="0" width="140" height="168"><path d="M0 8a8 8 0 0 1 8-8h132v167.95H8a8 8 0 0 1-8-8V8z" fill="#c4c4c4"/></mask><g mask="url(#A)"><path d="M-27-2.05h172v172H-27v-172z" fill="#e65678"/><path d="M107.658 96.913a7.8 7.8 0 0 0-2.27-.862V72.948c.775-.195 1.55-.445 2.298-.89 4.126-2.419 5.538-7.673 3.157-11.816-2.409-4.142-7.643-5.56-11.769-3.169-.748.445-1.357.973-1.911 1.585L77.225 47.093c.222-.779.388-1.585.388-2.447C77.612 39.864 73.763 36 69 36s-8.612 3.864-8.612 8.646c0 .862.166 1.668.388 2.447L40.837 58.631c-.554-.584-1.191-1.14-1.911-1.557-4.126-2.419-9.388-1.001-11.769 3.142s-.969 9.425 3.157 11.816c.748.417 1.495.695 2.298.89v23.131c-.775.195-1.551.445-2.271.862-4.126 2.419-5.538 7.674-3.157 11.816s7.615 5.56 11.769 3.17c.72-.417 1.329-.974 1.883-1.557l19.938 11.565c-.221.779-.388 1.585-.388 2.447 0 4.782 3.849 8.646 8.612 8.646s8.612-3.864 8.612-8.646c0-.946-.194-1.863-.471-2.697l19.828-11.482c.609.667 1.274 1.279 2.105 1.751 4.126 2.391 9.387.973 11.769-3.169s.969-9.48-3.185-11.844zm-64.689 5.45c-.194-.779-.443-1.557-.858-2.28s-.969-1.362-1.551-1.918l26.031-45.289c.775.222 1.551.389 2.382.389H69c.831 0 1.606-.167 2.354-.389l26.058 45.289c-.582.556-1.108 1.168-1.551 1.891-.415.723-.692 1.501-.858 2.28H42.969v.028zm52.144-40.174c-.609 2.168-.388 4.587.803 6.672 1.219 2.113 3.185 3.503 5.372 4.059v23.103l-.332.083-26.031-45.261c.083-.083.166-.139.249-.222l19.938 11.566zM62.825 50.624l.222.222-26.031 45.261-.332-.083V72.921c2.188-.556 4.182-1.946 5.4-4.059 1.218-2.085 1.412-4.504.803-6.7l19.938-11.538zm12.489 67.891c-1.578-1.723-3.822-2.835-6.341-2.835a8.55 8.55 0 0 0-6.175 2.641l-19.911-11.51.083-.334h52.006l.166.556-19.828 11.482z" fill="#fff"/></g></svg>
